X:133
T: IM SCHATTEN GRUENER BAEUME
N: B0165
O: Europa, Mitteleuropa, Deutschland, Wetterau
R: Ballade, Romanze
M: 6/8
L: 1/8
K: G
D | G2GGFG | B2AG2
D | A2AA2B | c2BA2
d | d2FGAB | A3z2
d | d2FGAB | A3z2
A | A2dA2G | GFz3
A | A2dA2G | GFz3
D | G2BB2e | d3B2
d | d2cA2B | G3z2

